svg/u1fa80.svg

<svg viewBox="0 0 128 128" xmlns="http://www.w3.org/2000/svg">
  <path d="M74.36,5.37c0,0,18.48-1.19,34.59,21.13c14.25,19.74,8.96,49.29-2.73,61.93 c-10.81,11.69-20.27,15.11-30.5,16.02S51.94,56.83,52.67,55.19C53.4,53.55,74.36,5.37,74.36,5.37z" fill="#DB0D2A"/>
  <path d="M53.88,6.71c0.11-0.44,5.85-1.95,5.85-1.95s13.08-1.08,20.2,1.88c7.14,2.97,22,11.96,27.12,32.46 c4.58,18.31,2.2,42.21-16.44,58.15c-15.73,13.44-41.36,6.95-41.36,6.95L53.88,6.71z" fill="#871E0E"/>
  <path d="M98.74,51.37c0.31,0.62,3.85,10.75,5.98,16.02c2.37,5.88,5,10.73,6.55,13.41 c1.55,2.68,4.76,8.02,4.76,8.02l1.51-5.8c0,0-5.57-9.85-8.57-17.41c-2.37-5.99-3.92-9.82-5.07-13.29 c-1.34-4.04-2.84-11.11-5.01-13.17C96.72,37.07,98.74,51.37,98.74,51.37z" fill="#C0B3AE"/>
  <path d="M66,111.76c0,0,5.1,0.46,5.86,0.94c1.6,1,1.78,1.2,1.78,1.2l6.36,1.46c0,0,0.05,2.73,2.61,2.71 c2.07-0.02,2.93-1.78,2.93-1.78s2.38,0.76,5.36,1.31c2.97,0.54,4.81-1.21,4.81-1.21s0.65-1.36-1.76-1.75 c-2.41-0.39-4.7-1.01-4.7-1.01s1.27-0.47,1.31-0.49c0.87-0.41,1.44-2.24,1.27-2.59c-0.44-0.88-2.46-0.7-2.46-0.7 s-1.56,0.63-2.51,0.77c-0.95,0.15-3.36,0.51-3.36,0.51l-1.46,0.22l-3.14-1.02c0,0-5.04-1.39-7.89-1.53S66,111.76,66,111.76z" fill="#C0B3AE"/>
  <path d="M89.38,109.84c0,0,0.68,0.82,0.95,1.48s0.23,1.8,0.23,1.8s1.43-0.48,3.28-1.71 c1.34-0.9,2.8-2.09,2.84-3.24c0.05-1.22-1.03-2.27-2.18-1.78c-0.62,0.27-1.12,1.18-2.45,1.98 C90.72,109.18,89.38,109.84,89.38,109.84z" fill="#D8CCC7"/>
  <path d="M93.96,114.63c-0.04-0.11-3.64,2.87-3.64,2.87s8.86,1.88,17.59-0.12c3.17-0.73,10.41-3.12,14.05-8.96 c1.97-3.17,2.88-8.75,1.54-13.86c-1.18-4.53-6.28-12.11-6.28-12.11s-0.52,0.52-1.34,1.5c-0.82,0.98-1.32,2.47-1.32,2.47 s8.68,12.61,3.76,19.72C110.85,116.94,93.96,114.63,93.96,114.63z" fill="#D8CCC7"/>
  <path d="M81.44,111.15c0,0,1.1-2.11,3.3-1.68c0.94,0.18,1.24,1.22,1.22,1.27c-0.58,1.42-1.12,2.52-2.11,3.39 c-1.51,1.33-3.91,1.23-3.91,1.23s-6.23,0.51-10.67,2.8s-19.37,11.76-22.38,2.7c-2.51-7.59,7.27-11.79,13.39-12.34 c6.13-0.55,11.47,0.32,11.47,0.32s-5.49,2.93-5.67,2.93c-0.18,0-9.37-0.23-13.44,3.15c-4.07,3.38-1.43,6.29,1.19,5.71 c5.21-1.14,14.07-7.01,19.24-8.37C77.98,110.98,81.44,111.15,81.44,111.15z" fill="#D8CCC7"/>
  <path d="M55.1,4.36C26.27,5.38,8.96,29.81,8.96,55.94c0,24.44,17.98,47.79,43.09,49.03 c27.48,1.36,51.06-17.13,50.55-50.89C102.11,21.45,79.18,3.52,55.1,4.36z" fill="#DB0D2A"/>
  <path d="M21.01,54.75c0,26.46,18.83,36.2,29.67,36.78c12.72,0.68,33.93-7.24,34.28-34.75 c0.31-24.83-19.51-35.84-31.38-36.13C39.84,20.31,21.01,32.36,21.01,54.75z" fill="#FF5F5F"/>
  <path d="M30,19.47c0.93,1.33,3.47-2.56,12.7-4.29c7.62-1.43,15.24-0.79,21.56,1.19 c7.31,2.28,10.5,6.94,13.15,2.83c2.5-3.88-2.99-7.19-11.05-9.23c-9.77-2.47-19.68-0.88-26.22,1.92C34.38,14.35,29.36,18.55,30,19.47 z" fill="#FFFFFF"/>
  <path d="M80.41,22.16c-1.2,1.67-0.48,3.67,1.21,4.91c1.69,1.25,3.52,1.59,4.84,0.11 c1.39-1.55,0.43-3.96-1.29-5.22C83.21,20.52,81.37,20.82,80.41,22.16z" fill="#FFFFFF"/>
</svg>

<svg viewBox="0 0 128 128" xmlns="http://www.w3.org/2000/svg">
  <defs/>
  <path d="M74.36,5.37 C74.36,5.37 92.84,4.18 108.95,26.5 C123.2,46.24 117.91,75.79 106.22,88.43 C95.41,100.12 85.95,103.54 75.72,104.45 C65.49,105.36 51.94,56.83 52.67,55.19 C53.4,53.55 74.36,5.37 74.36,5.37 Z" fill="#DB0D2A"/>
  <path d="M53.88,6.71 C53.99,6.27 59.73,4.76 59.73,4.76 C59.73,4.76 72.81,3.68 79.93,6.64 C87.07,9.61 101.93,18.6 107.05,39.1 C111.63,57.41 109.25,81.31 90.61,97.25 C74.88,110.69 49.25,104.2 49.25,104.2 L53.88,6.71 Z" fill="#871E0E"/>
  <path d="M98.74,51.37 C99.05,51.99 102.59,62.12 104.72,67.39 C107.09,73.27 109.72,78.12 111.27,80.8 C112.82,83.48 116.03,88.82 116.03,88.82 L117.54,83.02 C117.54,83.02 111.97,73.17 108.97,65.61 C106.6,59.62 105.05,55.79 103.9,52.32 C102.56,48.28 101.06,41.21 98.89,39.15 C96.72,37.07 98.74,51.37 98.74,51.37 Z" fill="#C0B3AE"/>
  <path d="M66,111.76 C66,111.76 71.1,112.22 71.86,112.7 C73.46,113.7 73.64,113.9 73.64,113.9 L80,115.36 C80,115.36 80.05,118.09 82.61,118.07 C84.68,118.05 85.54,116.29 85.54,116.29 C85.54,116.29 87.92,117.05 90.9,117.6 C93.87,118.14 95.71,116.39 95.71,116.39 C95.71,116.39 96.36,115.03 93.95,114.64 C91.54,114.25 89.25,113.63 89.25,113.63 C89.25,113.63 90.52,113.16 90.56,113.14 C91.43,112.73 92,110.9 91.83,110.55 C91.39,109.67 89.37,109.85 89.37,109.85 C89.37,109.85 87.81,110.48 86.86,110.62 C85.91,110.77 83.5,111.13 83.5,111.13 L82.04,111.35 L78.9,110.33 C78.9,110.33 73.86,108.94 71.01,108.8 C68.16,108.66 66,111.76 66,111.76 Z" fill="#C0B3AE"/>
  <path d="M89.38,109.84 C89.38,109.84 90.06,110.66 90.33,111.32 C90.6,111.98 90.56,113.12 90.56,113.12 C90.56,113.12 91.99,112.64 93.84,111.41 C95.18,110.51 96.64,109.32 96.68,108.17 C96.73,106.95 95.65,105.9 94.5,106.39 C93.88,106.66 93.38,107.57 92.05,108.37 C90.72,109.18 89.38,109.84 89.38,109.84 Z" fill="#D8CCC7"/>
  <path d="M93.96,114.63 C93.92,114.52 90.32,117.5 90.32,117.5 C90.32,117.5 99.18,119.38 107.91,117.38 C111.08,116.65 118.32,114.26 121.96,108.42 C123.93,105.25 124.84,99.67 123.5,94.56 C122.32,90.03 117.22,82.45 117.22,82.45 C117.22,82.45 116.7,82.97 115.88,83.95 C115.06,84.93 114.56,86.42 114.56,86.42 C114.56,86.42 123.24,99.03 118.32,106.14 C110.85,116.94 93.96,114.63 93.96,114.63 Z" fill="#D8CCC7"/>
  <path d="M81.44,111.15 C81.44,111.15 82.54,109.04 84.74,109.47 C85.68,109.65 85.98,110.69 85.96,110.74 C85.38,112.16 84.84,113.26 83.85,114.13 C82.34,115.46 79.94,115.36 79.94,115.36 C79.94,115.36 73.71,115.87 69.27,118.16 C64.83,120.45 49.9,129.92 46.89,120.86 C44.38,113.27 54.16,109.07 60.28,108.52 C66.41,107.97 71.75,108.84 71.75,108.84 C71.75,108.84 66.26,111.77 66.08,111.77 C65.9,111.77 56.71,111.54 52.64,114.92 C48.57,118.3 51.21,121.21 53.83,120.63 C59.04,119.49 67.9,113.62 73.07,112.26 C77.98,110.98 81.44,111.15 81.44,111.15 Z" fill="#D8CCC7"/>
  <path d="M55.1,4.36 C26.27,5.38 8.96,29.81 8.96,55.94 C8.96,80.38 26.94,103.73 52.05,104.97 C79.53,106.33 103.11,87.84 102.6,54.08 C102.11,21.45 79.18,3.52 55.1,4.36 Z" fill="#DB0D2A"/>
  <path d="M21.01,54.75 C21.01,81.21 39.84,90.95 50.68,91.53 C63.4,92.21 84.61,84.29 84.96,56.78 C85.27,31.95 65.45,20.94 53.58,20.65 C39.84,20.31 21.01,32.36 21.01,54.75 Z" fill="#FF5F5F"/>
  <path d="M30,19.47 C30.93,20.8 33.47,16.91 42.7,15.18 C50.32,13.75 57.94,14.39 64.26,16.37 C71.57,18.65 74.76,23.31 77.41,19.2 C79.91,15.32 74.42,12.01 66.36,9.97 C56.59,7.5 46.68,9.09 40.14,11.89 C34.38,14.35 29.36,18.55 30,19.47 Z" fill="#FFFFFF"/>
  <path d="M80.41,22.16 C79.21,23.83 79.93,25.83 81.62,27.07 C83.31,28.32 85.14,28.66 86.46,27.18 C87.85,25.63 86.89,23.22 85.17,21.96 C83.21,20.52 81.37,20.82 80.41,22.16 Z" fill="#FFFFFF"/>
</svg>
